; generated by PrusaSlicer 2.3.1+x64 on 2021-05-04 at 10:59:19 UTC


;
;

;
;
; 

; external perimeters extrusion width = 0.40mm
; perimeters extrusion width = 0.40mm
; infill extrusion width = 0.40mm
; solid infill extrusion width = 0.40mm
; top infill extrusion width = 0.40mm
; first layer extrusion width = 0.40mm

M73 P0 R15
M73 Q0 S15
;TYPE:Custom
; Default start code

G28 ; Home extruder

G29 ; bltouch

G1 Z5 F5000 ; lift nozzle 

M107 ; Turn off fan

G90 ; Absolute positioning

M82 ; Extruder in absolute mode

M190 S70

; Activate all used extruder

M104 T0 S220

G92 E0 ; Reset extruder position

; Wait for all used extruders and bed to reach temperature

M109 T0 S220
G21 ; set units to millimeters
G90 ; use absolute coordinates
M82 ; use absolute distances for extrusion
G92 E0
M106 S127.5
;LAYER_CHANGE
;Z:0.2
;HEIGHT:0.2

G1 Z0.200 F9000.000
G1 E-10.00000 F4800.000
G92 E0
G1 Z0.400 F9000.000
G1 X71.399 Y78.861
G1 Z0.200
G1 E10.00000 F3600.000
M204 S500
;TYPE:Skirt
;WIDTH:0.4
G1 F1800.000
G1 X72.986 Y77.474 E10.06257
G1 X74.901 Y76.141 E10.13185
G1 X77.038 Y74.917 E10.20497
G1 X79.273 Y73.908 E10.27777
G1 X83.431 Y72.614 E10.40707
G1 X85.028 Y72.223 E10.45589
G1 X87.488 Y71.887 E10.52963
G1 X90.129 Y71.767 E10.60810
G1 X93.003 Y71.924 E10.69358
G1 X95.392 Y72.303 E10.76540
G1 X99.664 Y73.513 E10.89720
G1 X101.847 Y74.367 E10.96682
G1 X104.238 Y75.614 E11.04689
G1 X106.685 Y77.228 E11.13392
G1 X108.143 Y78.457 E11.19056
G1 X111.144 Y81.404 E11.31543
G1 X112.537 Y83.000 E11.37832
G1 X113.877 Y84.932 E11.44813
G1 X115.129 Y87.130 E11.52323
G1 X116.126 Y89.364 E11.59589
G1 X117.402 Y93.493 E11.72418
G1 X117.797 Y95.143 E11.77456
G1 X118.118 Y97.565 E11.84709
G1 X118.232 Y100.427 E11.93216
G1 X118.048 Y103.253 E12.01625
G1 X117.667 Y105.526 E12.08467
G1 X116.465 Y109.734 E12.21460
M73 P1 R15
M73 Q1 S15
G1 X115.580 Y111.962 E12.28578
G1 X114.268 Y114.437 E12.36895
G1 X112.707 Y116.773 E12.45237
G1 X111.487 Y118.211 E12.50838
G1 X108.533 Y121.206 E12.63327
G1 X106.947 Y122.578 E12.69553
G1 X105.024 Y123.904 E12.76488
G1 X102.851 Y125.139 E12.83910
G1 X100.605 Y126.137 E12.91206
G1 X96.497 Y127.405 E13.03971
G1 X94.847 Y127.799 E13.09009
G1 X92.431 Y128.118 E13.16245
G1 X89.572 Y128.232 E13.24739
G1 X86.750 Y128.049 E13.33137
G1 X84.489 Y127.671 E13.39941
G1 X80.274 Y126.468 E13.52956
G1 X78.076 Y125.597 E13.59977
G1 X75.631 Y124.310 E13.68180
G1 X73.245 Y122.720 E13.76693
G1 X71.797 Y121.494 E13.82326
G1 X68.789 Y118.527 E13.94871
G1 X67.424 Y116.949 E14.01066
G1 X66.092 Y115.019 E14.08029
G1 X64.881 Y112.888 E14.15306
G1 X63.863 Y110.606 E14.22728
G1 X62.596 Y106.509 E14.35460
G1 X62.199 Y104.848 E14.40529
G1 X61.876 Y102.375 E14.47935
G1 X61.768 Y99.574 E14.56257
G1 X61.940 Y96.846 E14.64372
G1 X62.327 Y94.500 E14.71433
G1 X63.529 Y90.284 E14.84449
G1 X64.389 Y88.104 E14.91408
G1 X65.674 Y85.659 E14.99610
G1 X67.257 Y83.274 E15.08109
G1 X68.495 Y81.808 E15.13804
G1 X71.362 Y78.898 E15.25934
M204 S1000
G1 X71.616 Y79.149 F9000.000
M204 S500
G1 F1800.000
G1 X73.207 Y77.755 E15.32214
G1 X75.092 Y76.443 E15.39033
G1 X77.196 Y75.237 E15.46234
G1 X79.404 Y74.241 E15.53424
G1 X83.532 Y72.956 E15.66262
G1 X85.093 Y72.574 E15.71033
G1 X87.522 Y72.243 E15.78313
G1 X90.129 Y72.124 E15.86060
G1 X92.968 Y72.280 E15.94504
G1 X95.317 Y72.652 E16.01565
G1 X99.559 Y73.854 E16.14656
G1 X101.709 Y74.697 E16.21510
G1 X104.061 Y75.924 E16.29389
G1 X106.476 Y77.518 E16.37979
G1 X107.904 Y78.722 E16.43524
G1 X110.892 Y81.656 E16.55960
G1 X112.256 Y83.221 E16.62124
G1 X113.576 Y85.123 E16.68997
G1 X114.812 Y87.295 E16.76417
G1 X115.794 Y89.495 E16.83571
G1 X117.059 Y93.593 E16.96306
G1 X117.446 Y95.207 E17.01232
G1 X117.762 Y97.597 E17.08391
G1 X117.875 Y100.426 E17.16796
G1 X117.693 Y103.215 E17.25096
G1 X117.318 Y105.450 E17.31824
G1 X116.123 Y109.629 E17.44728
G1 X115.251 Y111.822 E17.51737
G1 X113.961 Y114.254 E17.59910
G1 X112.418 Y116.563 E17.68157
G1 X111.223 Y117.971 E17.73640
G1 X108.274 Y120.960 E17.86106
G1 X106.718 Y122.303 E17.92208
G1 X104.824 Y123.608 E17.99039
G1 X102.676 Y124.827 E18.06370
G1 X100.465 Y125.809 E18.13555
G1 X96.397 Y127.062 E18.26194
G1 X94.773 Y127.450 E18.31151
G1 X92.393 Y127.763 E18.38277
G1 X89.574 Y127.875 E18.46654
G1 X86.788 Y127.694 E18.54944
G1 X84.566 Y127.322 E18.61633
G1 X80.389 Y126.130 E18.74529
G1 X78.215 Y125.268 E18.81473
G1 X75.813 Y124.002 E18.89535
G1 X73.454 Y122.431 E18.97950
G1 X72.037 Y121.230 E19.03464
G1 X69.042 Y118.276 E19.15955
G1 X67.699 Y116.720 E19.22057
G1 X66.388 Y114.819 E19.28913
G1 X65.144 Y112.618 E19.36420
G1 X64.192 Y110.465 E19.43410
G1 X62.936 Y106.398 E19.56050
G1 X62.549 Y104.774 E19.61007
G1 X62.231 Y102.342 E19.68288
G1 X62.125 Y99.576 E19.76506
G1 X62.294 Y96.893 E19.84489
G1 X62.676 Y94.576 E19.91461
G1 X63.867 Y90.399 E20.04358
G1 X64.719 Y88.243 E20.11240
M73 P2 R15
M73 Q2 S15
G1 X65.987 Y85.831 E20.19332
G1 X67.553 Y83.474 E20.27734
G1 X68.759 Y82.048 E20.33279
G1 X71.579 Y79.186 E20.45209
M204 S1000
G1 X71.834 Y79.437 F9000.000
M204 S500
G1 F1800.000
G1 X73.428 Y78.035 E20.51512
G1 X75.292 Y76.739 E20.58253
G1 X77.364 Y75.553 E20.65342
G1 X79.544 Y74.569 E20.72443
G1 X83.634 Y73.299 E20.85157
G1 X85.169 Y72.923 E20.89851
G1 X87.556 Y72.598 E20.97005
G1 X90.129 Y72.481 E21.04651
G1 X92.923 Y72.634 E21.12959
G1 X95.243 Y73.001 E21.19932
G1 X99.445 Y74.193 E21.32901
G1 X101.560 Y75.021 E21.39647
G1 X103.875 Y76.229 E21.47400
G1 X106.267 Y77.807 E21.55906
G1 X107.664 Y78.986 E21.61335
G1 X110.632 Y81.901 E21.73686
G1 X111.976 Y83.443 E21.79758
G1 X113.274 Y85.315 E21.86523
G1 X114.491 Y87.451 E21.93821
G1 X115.462 Y89.626 E22.00895
G1 X116.717 Y93.694 E22.13535
G1 X117.096 Y95.282 E22.18381
G1 X117.406 Y97.630 E22.25414
G1 X117.518 Y100.424 E22.33716
G1 X117.338 Y103.177 E22.41907
G1 X116.969 Y105.374 E22.48521
G1 X115.785 Y109.514 E22.61307
G1 X114.926 Y111.673 E22.68206
G1 X113.655 Y114.071 E22.76265
G1 X112.129 Y116.353 E22.84416
G1 X110.951 Y117.738 E22.89814
G1 X108.030 Y120.699 E23.02163
G1 X106.498 Y122.022 E23.08174
G1 X104.632 Y123.306 E23.14899
G1 X102.521 Y124.505 E23.22108
G1 X100.343 Y125.473 E23.29183
G1 X96.296 Y126.720 E23.41757
G1 X94.708 Y127.098 E23.46604
G1 X92.244 Y127.417 E23.53982
G1 X89.576 Y127.518 E23.61909
M73 P2 R14
M73 Q2 S14
G1 X86.826 Y127.339 E23.70091
G1 X84.642 Y126.973 E23.76667
G1 X80.494 Y125.788 E23.89474
G1 X78.364 Y124.944 E23.96279
G1 X75.994 Y123.694 E24.04231
G1 X73.664 Y122.142 E24.12546
G1 X72.277 Y120.965 E24.17944
G1 X69.303 Y118.032 E24.30348
G1 X67.986 Y116.508 E24.36328
G1 X66.695 Y114.637 E24.43076
G1 X65.518 Y112.566 E24.50149
G1 X64.528 Y110.345 E24.57372
G1 X63.281 Y106.307 E24.69919
G1 X62.900 Y104.709 E24.74796
G1 X62.587 Y102.310 E24.81981
G1 X62.482 Y99.579 E24.90095
G1 X62.650 Y96.929 E24.97977
G1 X63.025 Y94.652 E25.04830
G1 X64.209 Y90.504 E25.17638
G1 X65.043 Y88.392 E25.24381
G1 X66.295 Y86.012 E25.32364
G1 X67.843 Y83.683 E25.40667
G1 X69.024 Y82.288 E25.46096
G1 X71.797 Y79.474 E25.57825
M204 S1000
G1 X72.051 Y79.725 F9000.000
M204 S500
G1 F1800.000
G1 X73.658 Y78.309 E25.64181
G1 X75.483 Y77.040 E25.70783
G1 X77.532 Y75.868 E25.77792
G1 X79.675 Y74.901 E25.84772
G1 X83.735 Y73.641 E25.97394
G1 X85.225 Y73.276 E26.01948
G1 X87.581 Y72.954 E26.09010
G1 X90.119 Y72.838 E26.16553
G1 X92.888 Y72.990 E26.24787
G1 X95.168 Y73.350 E26.31639
G1 X99.341 Y74.534 E26.44518
G1 X101.422 Y75.351 E26.51156
G1 X103.699 Y76.539 E26.58781
G1 X106.066 Y78.103 E26.67204
G1 X107.432 Y79.258 E26.72516
G1 X110.379 Y82.154 E26.84784
G1 X111.696 Y83.664 E26.90733
G1 X112.978 Y85.515 E26.97420
G1 X114.174 Y87.616 E27.04597
G1 X115.129 Y89.758 E27.11560
G1 X116.374 Y93.795 E27.24104
G1 X116.745 Y95.346 E27.28840
G1 X117.051 Y97.663 E27.35778
G1 X117.161 Y100.422 E27.43977
G1 X116.983 Y103.139 E27.52060
G1 X116.620 Y105.298 E27.58560
G1 X115.444 Y109.409 E27.71257
G1 X114.598 Y111.533 E27.78046
G1 X113.343 Y113.896 E27.85991
G1 X111.840 Y116.143 E27.94017
G1 X110.687 Y117.498 E27.99299
G1 X107.779 Y120.445 E28.11593
M73 P3 R14
M73 Q3 S14
G1 X106.277 Y121.741 E28.17481
G1 X104.441 Y123.005 E28.24100
G1 X102.356 Y124.188 E28.31218
G1 X100.212 Y125.141 E28.38183
G1 X96.195 Y126.377 E28.50662
G1 X94.644 Y126.747 E28.55398
G1 X92.215 Y127.061 E28.62670
G1 X89.578 Y127.161 E28.70505
G1 X86.864 Y126.984 E28.78580
G1 X84.718 Y126.624 E28.85041
G1 X80.609 Y125.450 E28.97730
G1 X78.512 Y124.619 E29.04425
G1 X76.176 Y123.387 E29.12268
G1 X73.873 Y121.852 E29.20484
G1 X72.510 Y120.694 E29.25796
G1 X69.557 Y117.781 E29.38113
G1 X68.267 Y116.288 E29.43971
G1 X66.997 Y114.446 E29.50611
G1 X65.787 Y112.306 E29.57914
G1 X64.860 Y110.214 E29.64705
G1 X63.624 Y106.206 E29.77159
G1 X63.251 Y104.645 E29.81925
G1 X62.942 Y102.276 E29.89018
G1 X62.839 Y99.581 E29.97026
G1 X63.005 Y96.966 E30.04806
G1 X63.373 Y94.728 E30.11540
G1 X64.547 Y90.618 E30.24229
G1 X65.372 Y88.531 E30.30894
G1 X66.603 Y86.193 E30.38737
G1 X68.133 Y83.892 E30.46942
G1 X69.289 Y82.527 E30.52254
G1 X72.014 Y79.762 E30.63781
M204 S1000
G1 E20.63781 F4800.000
G92 E0
G1 Z0.400 F9000.000
G1 X73.879 Y78.590
G1 Z0.200
G1 E10.00000 F3600.000
M204 S500
G1 F1800.000
G1 X75.683 Y77.336 E10.06522
G1 X77.691 Y76.188 E10.13390
G1 X79.806 Y75.234 E10.20281
G1 X83.837 Y73.983 E10.32809
G1 X85.301 Y73.625 E10.37286
G1 X87.615 Y73.310 E10.44221
G1 X90.120 Y73.195 E10.51664
G1 X92.843 Y73.344 E10.59764
G1 X95.083 Y73.697 E10.66496
G1 X99.227 Y74.873 E10.79284
G1 X101.274 Y75.676 E10.85812
G1 X103.522 Y76.849 E10.93342
G1 X105.848 Y78.386 E11.01621
G1 X107.185 Y79.516 E11.06817
G1 X110.126 Y82.406 E11.19061
G1 X111.422 Y83.893 E11.24918
G1 X112.677 Y85.706 E11.31465
G1 X113.858 Y87.781 E11.38551
G1 X114.797 Y89.889 E11.45404
G1 X116.029 Y93.886 E11.57823
G1 X116.394 Y95.411 E11.62479
G1 X116.695 Y97.695 E11.69320
G1 X116.803 Y100.420 E11.77417
G1 X116.628 Y103.100 E11.85391
G1 X116.271 Y105.221 E11.91778
G1 X115.106 Y109.294 E12.04356
G1 X114.273 Y111.384 E12.11034
G1 X113.036 Y113.713 E12.18866
G1 X111.551 Y115.933 E12.26796
G1 X110.423 Y117.258 E12.31963
G1 X107.527 Y120.192 E12.44201
G1 X106.057 Y121.460 E12.49968
G1 X104.249 Y122.703 E12.56480
G1 X102.191 Y123.871 E12.63507
G1 X100.081 Y124.808 E12.70361
G1 X96.104 Y126.032 E12.82716
G1 X94.579 Y126.396 E12.87372
G1 X92.185 Y126.705 E12.94538
G1 X89.579 Y126.803 E13.02281
G1 X86.902 Y126.629 E13.10247
G1 X84.794 Y126.275 E13.16595
G1 X80.713 Y125.109 E13.29195
G1 X78.652 Y124.290 E13.35780
G1 X76.349 Y123.074 E13.43513
G1 X74.083 Y121.563 E13.51600
G1 X72.750 Y120.429 E13.56796
G1 X69.810 Y117.529 E13.69056
G1 X68.541 Y116.059 E13.74823
G1 X67.294 Y114.247 E13.81354
G1 X66.105 Y112.145 E13.88525
G1 X65.193 Y110.084 E13.95218
G1 X63.966 Y106.105 E14.07579
G1 X63.602 Y104.580 E14.12235
G1 X63.299 Y102.253 E14.19201
G1 X63.197 Y99.583 E14.27136
G1 X63.359 Y97.012 E14.34784
G1 X63.722 Y94.804 E14.41429
G1 X64.888 Y90.723 E14.54030
G1 X65.701 Y88.670 E14.60585
M73 P4 R14
M73 Q4 S14
G1 X66.915 Y86.366 E14.68319
G1 X68.422 Y84.101 E14.76395
G1 X69.554 Y82.767 E14.81592
G1 X72.407 Y79.872 E14.93658
G1 X73.839 Y78.624 E14.99299
M204 S1000
G1 X74.074 Y78.893 F9000.000
M204 S500
G1 F1800.000
G1 X75.874 Y77.638 E15.05815
G1 X77.858 Y76.503 E15.12602
G1 X79.937 Y75.566 E15.19373
G1 X83.938 Y74.326 E15.31809
G1 X85.367 Y73.976 E15.36178
G1 X87.650 Y73.665 E15.43017
G1 X90.120 Y73.552 E15.50360
G1 X92.809 Y73.699 E15.58355
G1 X95.018 Y74.049 E15.64997
G1 X99.123 Y75.214 E15.77665
G1 X101.134 Y76.005 E15.84083
G1 X103.345 Y77.160 E15.91487
G1 X105.647 Y78.682 E15.99681
G1 X106.952 Y79.788 E16.04762
G1 X109.874 Y82.658 E16.16922
G1 X111.142 Y84.115 E16.22657
G1 X112.381 Y85.906 E16.29123
G1 X113.541 Y87.946 E16.36090
G1 X114.465 Y90.020 E16.42832
G1 X115.686 Y93.987 E16.55155
G1 X116.043 Y95.476 E16.59702
G1 X116.339 Y97.718 E16.66417
G1 X116.446 Y100.418 E16.74441
G1 X116.273 Y103.062 E16.82307
G1 X115.923 Y105.145 E16.88580
G1 X114.764 Y109.189 E17.01070
G1 X113.945 Y111.243 E17.07636
G1 X112.725 Y113.539 E17.15354
G1 X111.262 Y115.723 E17.23159
G1 X110.158 Y117.018 E17.28211
G1 X107.276 Y119.938 E17.40394
G1 X105.828 Y121.186 E17.46069
G1 X104.050 Y122.407 E17.52474
G1 X102.027 Y123.555 E17.59380
G1 X99.941 Y124.479 E17.66154
G1 X96.004 Y125.689 E17.78383
G1 X94.514 Y126.045 E17.82930
G1 X92.146 Y126.350 E17.90018
G1 X89.581 Y126.446 E17.97640
G1 X86.940 Y126.274 E18.05498
G1 X84.870 Y125.926 E18.11732
G1 X80.828 Y124.770 E18.24214
G1 X78.792 Y123.961 E18.30719
G1 X76.530 Y122.767 E18.38313
G1 X74.285 Y121.268 E18.46329
G1 X72.989 Y120.164 E18.51381
G1 X70.064 Y117.278 E18.63584
G1 X68.822 Y115.838 E18.69230
G1 X67.596 Y114.056 E18.75651
G1 X66.419 Y111.975 E18.82751
G1 X65.522 Y109.944 E18.89344
G1 X64.309 Y106.004 E19.01582
G1 X63.953 Y104.515 E19.06129
G1 X63.654 Y102.221 E19.12998
G1 X63.554 Y99.585 E19.20829
G1 X63.714 Y97.049 E19.28376
G1 X64.071 Y94.879 E19.34903
G1 X65.227 Y90.837 E19.47385
G1 X66.026 Y88.819 E19.53830
G1 X67.223 Y86.547 E19.61454
G1 X68.712 Y84.311 E19.69432
G1 X69.819 Y83.006 E19.74513
G1 X72.652 Y80.132 E19.86494
G1 X74.034 Y78.927 E19.91938
M204 S1000
G1 X74.268 Y79.196 F9000.000
M204 S500
G1 F1800.000
G1 X76.065 Y77.940 E19.98448
G1 X78.017 Y76.823 E20.05126
G1 X80.069 Y75.898 E20.11807
G1 X84.039 Y74.668 E20.24149
G1 X85.434 Y74.327 E20.28411
G1 X87.683 Y74.021 E20.35153
G1 X90.121 Y73.910 E20.42396
G1 X92.774 Y74.055 E20.50286
G1 X94.944 Y74.398 E20.56809
G1 X99.018 Y75.556 E20.69385
G1 X100.995 Y76.334 E20.75693
G1 X103.168 Y77.470 E20.82972
G1 X105.437 Y78.971 E20.91051
G1 X106.713 Y80.053 E20.96018
G1 X109.621 Y82.911 E21.08124
G1 X110.862 Y84.337 E21.13737
G1 X112.079 Y86.098 E21.20092
G1 X113.224 Y88.111 E21.26969
G1 X114.136 Y90.160 E21.33630
G1 X115.344 Y94.087 E21.45829
G1 X115.694 Y95.551 E21.50297
G1 X115.983 Y97.751 E21.56885
G1 X116.089 Y100.417 E21.64806
G1 X115.918 Y103.023 E21.72563
G1 X115.574 Y105.069 E21.78723
G1 X114.426 Y109.075 E21.91094
G1 X113.620 Y111.094 E21.97549
G1 X112.418 Y113.355 E22.05153
G1 X110.973 Y115.513 E22.12863
G1 X109.894 Y116.778 E22.17801
G1 X107.024 Y119.684 E22.29926
G1 X105.607 Y120.905 E22.35481
G1 X103.858 Y122.105 E22.41778
G1 X101.871 Y123.233 E22.48564
M73 P5 R14
M73 Q5 S14
G1 X99.819 Y124.144 E22.55228
G1 X95.903 Y125.347 E22.67392
G1 X94.449 Y125.694 E22.71830
G1 X92.117 Y125.994 E22.78810
G1 X89.583 Y126.089 E22.86340
G1 X86.978 Y125.919 E22.94090
G1 X84.945 Y125.577 E23.00211
G1 X80.933 Y124.429 E23.12604
G1 X78.941 Y123.637 E23.18968
G1 X76.712 Y122.459 E23.26453
G1 X74.495 Y120.979 E23.34369
G1 X73.229 Y119.900 E23.39307
G1 X70.318 Y117.026 E23.51452
G1 X69.103 Y115.617 E23.56978
G1 X67.892 Y113.857 E23.63319
G1 X66.738 Y111.814 E23.70287
G1 X65.854 Y109.813 E23.76781
G1 X64.654 Y105.913 E23.88897
G1 X64.304 Y104.450 E23.93365
G1 X64.010 Y102.188 E24.00135
G1 X63.911 Y99.587 E24.07863
G1 X64.069 Y97.085 E24.15309
G1 X64.420 Y94.955 E24.21717
G1 X65.565 Y90.952 E24.34081
G1 X66.351 Y88.968 E24.40415
G1 X67.531 Y86.729 E24.47930
G1 X68.996 Y84.526 E24.55786
G1 X70.086 Y83.244 E24.60783
G1 X72.904 Y80.385 E24.72701
G1 X74.229 Y79.231 E24.77918
M204 S1000
G1 X74.463 Y79.500 F9000.000
M204 S500
G1 F1800.000
G1 X76.256 Y78.242 E24.84422
G1 X78.176 Y77.143 E24.90990
G1 X80.200 Y76.230 E24.97581
G1 X84.131 Y75.013 E25.09801
G1 X85.501 Y74.678 E25.13987
G1 X87.717 Y74.376 E25.20629
G1 X90.121 Y74.267 E25.27773
G1 X92.376 Y74.373 E25.34475
G1 X94.867 Y74.747 E25.41955
G1 X98.905 Y75.894 E25.54418
G1 X100.847 Y76.658 E25.60615
G1 X102.990 Y77.780 E25.67798
G1 X105.228 Y79.260 E25.75762
G1 X106.474 Y80.318 E25.80616
G1 X109.361 Y83.156 E25.92637
G1 X110.582 Y84.559 E25.98158
G1 X111.777 Y86.289 E26.04402
G1 X112.903 Y88.267 E26.11160
G1 X113.801 Y90.282 E26.17710
G1 X115.001 Y94.188 E26.29843
G1 X115.341 Y95.607 E26.34174
G1 X115.628 Y97.783 E26.40693
G1 X115.732 Y100.415 E26.48511
G1 X115.563 Y102.985 E26.56160
G1 X115.225 Y104.994 E26.62207
G1 X114.085 Y108.970 E26.74489
G1 X113.292 Y110.953 E26.80831
G1 X112.107 Y113.181 E26.88322
G1 X110.678 Y115.310 E26.95936
G1 X109.629 Y116.538 E27.00731
G1 X106.773 Y119.430 E27.12800
