; generated by PrusaSlicer 2.3.1+x64 on 2021-05-04 at 10:58:01 UTC


;
;

;
;
; 

; external perimeters extrusion width = 0.40mm
; perimeters extrusion width = 0.40mm
; infill extrusion width = 0.40mm
; solid infill extrusion width = 0.40mm
; top infill extrusion width = 0.40mm
; first layer extrusion width = 0.40mm

M73 P0 R46
M73 Q0 S46
;TYPE:Custom
; Default start code

G28 ; Home extruder

G29 ; bltouch

G1 Z5 F5000 ; lift nozzle 

M107 ; Turn off fan

G90 ; Absolute positioning

M82 ; Extruder in absolute mode

M190 S70

; Activate all used extruder

M104 T0 S220

G92 E0 ; Reset extruder position

; Wait for all used extruders and bed to reach temperature

M109 T0 S220
G21 ; set units to millimeters
G90 ; use absolute coordinates
M82 ; use absolute distances for extrusion
G92 E0
M106 S127.5
;LAYER_CHANGE
;Z:0.2
;HEIGHT:0.2

G1 Z0.200 F9000.000
G1 E-10.00000 F4800.000
G92 E0
G1 Z0.400 F9000.000
G1 X71.200 Y78.941
G1 Z0.200
G1 E10.00000 F3600.000
M204 S500
;TYPE:Skirt
;WIDTH:0.4
G1 F1800.000
G1 X72.755 Y77.602 E10.06092
G1 X74.574 Y76.361 E10.12630
G1 X77.887 Y74.524 E10.23878
G1 X79.735 Y73.710 E10.29875
G1 X81.670 Y73.095 E10.35903
G1 X83.501 Y72.715 E10.41454
G1 X85.359 Y72.517 E10.47004
G1 X92.461 Y72.487 E10.68090
G1 X95.171 Y72.683 E10.76157
G1 X97.824 Y73.266 E10.84223
G1 X101.249 Y74.466 E10.94998
G1 X104.914 Y76.175 E11.07003
G1 X106.884 Y77.440 E11.13956
G1 X108.691 Y78.946 E11.20940
G1 X112.211 Y82.755 E11.36340
G1 X113.330 Y84.130 E11.41603
G1 X114.629 Y86.142 E11.48715
G1 X116.112 Y89.103 E11.58545
G1 X116.897 Y91.194 E11.65179
G1 X117.427 Y93.354 E11.71781
G1 X117.631 Y94.747 E11.75960
G1 X117.730 Y96.151 E11.80140
G1 X117.741 Y102.752 E11.99739
G1 X117.658 Y104.501 E12.04938
G1 X117.411 Y106.246 E12.10170
G1 X116.858 Y108.443 E12.16899
G1 X116.046 Y110.559 E12.23629
G1 X113.327 Y115.812 E12.41189
G1 X112.286 Y117.517 E12.47122
G1 X110.658 Y119.571 E12.54902
G1 X108.290 Y121.898 E12.64762
G1 X106.694 Y123.239 E12.70949
G1 X104.961 Y124.396 E12.77137
G1 X103.023 Y125.396 E12.83612
G1 X100.983 Y126.166 E12.90086
G1 X97.325 Y127.047 E13.01259
G1 X95.545 Y127.344 E13.06618
G1 X92.145 Y127.530 E13.16728
G1 X87.641 Y127.521 E13.30099
G1 X84.192 Y127.371 E13.40349
G1 X82.126 Y127.097 E13.46537
G1 X79.970 Y126.556 E13.53139
G1 X77.901 Y125.769 E13.59709
G1 X75.939 Y124.747 E13.66279
G1 X74.109 Y123.503 E13.72849
G1 X72.835 Y122.431 E13.77794
G1 X70.763 Y120.426 E13.86354
G1 X67.616 Y116.894 E14.00399
G1 X66.098 Y114.771 E14.08148
G1 X64.947 Y112.827 E14.14858
G1 X64.104 Y111.015 E14.20790
G1 X63.257 Y108.551 E14.28526
G1 X62.775 Y106.512 E14.34746
G1 X62.310 Y102.460 E14.46857
G1 X62.223 Y100.840 E14.51674
G1 X62.282 Y98.307 E14.59196
G1 X62.654 Y95.467 E14.67700
G1 X63.549 Y91.856 E14.78746
G1 X63.957 Y90.509 E14.82925
G1 X65.106 Y87.518 E14.92437
G1 X66.038 Y85.631 E14.98689
G1 X67.187 Y83.841 E15.05004
G1 X69.793 Y80.449 E15.17704
G1 X71.164 Y78.979 E15.23672
M204 S1000
G1 X71.425 Y79.224 F9000.000
M204 S500
G1 F1800.000
G1 X72.993 Y77.869 E15.29822
G1 X74.779 Y76.655 E15.36235
G1 X78.064 Y74.835 E15.47386
G1 X79.886 Y74.035 E15.53294
G1 X81.793 Y73.432 E15.59234
G1 X83.586 Y73.063 E15.64669
G1 X85.406 Y72.872 E15.70103
G1 X92.461 Y72.844 E15.91049
G1 X95.124 Y73.037 E15.98976
G1 X97.731 Y73.611 E16.06903
G1 X101.122 Y74.800 E16.17573
G1 X104.753 Y76.494 E16.29470
G1 X106.695 Y77.744 E16.36325
G1 X108.466 Y79.225 E16.43180
G1 X111.953 Y83.002 E16.58442
G1 X113.060 Y84.365 E16.63656
G1 X114.326 Y86.333 E16.70605
G1 X115.793 Y89.265 E16.80339
M73 P0 R45
M73 Q0 S45
G1 X116.561 Y91.318 E16.86847
G1 X117.081 Y93.447 E16.93355
G1 X117.278 Y94.806 E16.97432
G1 X117.374 Y96.186 E17.01540
G1 X117.384 Y102.773 E17.21096
G1 X117.299 Y104.505 E17.26246
G1 X117.052 Y106.222 E17.31397
G1 X116.507 Y108.367 E17.37968
G1 X115.707 Y110.442 E17.44570
G1 X113.007 Y115.653 E17.61997
G1 X111.974 Y117.341 E17.67873
G1 X110.371 Y119.356 E17.75516
G1 X108.021 Y121.661 E17.85291
G1 X106.454 Y122.973 E17.91357
G1 X104.744 Y124.110 E17.97455
G1 X102.841 Y125.086 E18.03804
G1 X100.839 Y125.837 E18.10154
G1 X97.228 Y126.703 E18.21181
G1 X95.464 Y126.994 E18.26489
G1 X92.123 Y127.173 E18.36421
G1 X87.635 Y127.164 E18.49747
G1 X84.213 Y127.015 E18.59917
G1 X82.157 Y126.739 E18.66078
G1 X79.971 Y126.181 E18.72775
G1 X77.870 Y125.363 E18.79472
G1 X75.874 Y124.290 E18.86200
G1 X74.031 Y122.988 E18.92897
G1 X71.448 Y120.630 E19.03283
G1 X68.259 Y117.099 E19.17410
G1 X67.035 Y115.544 E19.23286
G1 X65.826 Y113.648 E19.29962
G1 X64.935 Y112.013 E19.35491
G1 X64.212 Y110.297 E19.41021
G1 X63.484 Y108.044 E19.48049
G1 X63.058 Y106.035 E19.54146
G1 X62.653 Y102.287 E19.65341
G1 X62.579 Y100.703 E19.70049
G1 X62.643 Y98.279 E19.77248
G1 X63.012 Y95.491 E19.85599
G1 X63.897 Y91.936 E19.96474
G1 X64.299 Y90.613 E20.00583
G1 X65.437 Y87.652 E20.09998
G1 X66.356 Y85.793 E20.16158
G1 X67.484 Y84.038 E20.22351
G1 X70.078 Y80.664 E20.34989
G1 X71.389 Y79.262 E20.40688
M204 S1000
G1 X71.650 Y79.506 F9000.000
M204 S500
G1 F1800.000
G1 X73.222 Y78.143 E20.46865
G1 X74.966 Y76.959 E20.53122
G1 X78.240 Y75.145 E20.64237
G1 X80.036 Y74.360 E20.70057
G1 X81.896 Y73.774 E20.75845
G1 X83.651 Y73.414 E20.81165
G1 X85.443 Y73.227 E20.86515
G1 X92.461 Y73.201 E21.07352
G1 X95.077 Y73.391 E21.15140
G1 X97.649 Y73.958 E21.22959
G1 X100.996 Y75.134 E21.33492
G1 X104.593 Y76.814 E21.45280
G1 X106.497 Y78.042 E21.52006
G1 X108.233 Y79.496 E21.58732
G1 X111.694 Y83.248 E21.73888
G1 X112.783 Y84.591 E21.79020
G1 X114.019 Y86.514 E21.85808
G1 X115.470 Y89.417 E21.95445
G1 X116.222 Y91.431 E22.01828
G1 X116.734 Y93.530 E22.08241
G1 X117.018 Y96.211 E22.16248
G1 X117.027 Y102.783 E22.35759
G1 X116.942 Y104.488 E22.40829
G1 X116.697 Y106.178 E22.45898
G1 X116.160 Y108.281 E22.52343
G1 X115.372 Y110.315 E22.58819
G1 X112.692 Y115.485 E22.76110
G1 X111.674 Y117.148 E22.81899
G1 X110.098 Y119.125 E22.89406
G1 X107.767 Y121.409 E22.99094
G1 X106.223 Y122.700 E23.05070
G1 X104.537 Y123.818 E23.11078
G1 X102.670 Y124.771 E23.17304
G1 X100.705 Y125.504 E23.23530
G1 X97.141 Y126.356 E23.34409
G1 X95.394 Y126.643 E23.39666
G1 X92.102 Y126.816 E23.49452
G1 X87.630 Y126.806 E23.62732
G1 X84.234 Y126.658 E23.72823
G1 X82.198 Y126.384 E23.78924
G1 X80.055 Y125.833 E23.85494
G1 X77.985 Y125.023 E23.92095
G1 X76.038 Y123.971 E23.98664
G1 X74.224 Y122.685 E24.05265
G1 X71.690 Y120.366 E24.15465
G1 X68.520 Y116.854 E24.29514
G1 X67.315 Y115.321 E24.35303
G1 X66.114 Y113.434 E24.41943
G1 X65.244 Y111.832 E24.47357
G1 X64.539 Y110.151 E24.52770
G1 X63.823 Y107.930 E24.59696
G1 X63.406 Y105.951 E24.65703
G1 X63.008 Y102.253 E24.76746
G1 X62.936 Y100.695 E24.81377
G1 X63.000 Y98.294 E24.88508
G1 X63.369 Y95.525 E24.96801
G1 X64.638 Y90.726 E25.11541
G1 X65.763 Y87.796 E25.20859
G1 X66.670 Y85.964 E25.26929
G1 X67.776 Y84.245 E25.32999
G1 X70.351 Y80.895 E25.45543
G1 X71.614 Y79.544 E25.51035
M204 S1000
G1 X71.875 Y79.788 F9000.000
M204 S500
G1 F1800.000
G1 X71.970 Y79.686 E25.51450
G1 X73.452 Y78.417 E25.57243
G1 X75.162 Y77.258 E25.63377
G1 X78.408 Y75.461 E25.74391
G1 X80.176 Y74.688 E25.80122
G1 X82.008 Y74.114 E25.85823
G1 X83.736 Y73.762 E25.91059
G1 X85.480 Y73.583 E25.96264
G1 X92.461 Y73.558 E26.16990
G1 X95.040 Y73.747 E26.24670
G1 X97.566 Y74.306 E26.32350
G1 X100.869 Y75.467 E26.42745
G1 X104.442 Y77.138 E26.54455
G1 X106.307 Y78.345 E26.61053
G1 X108.008 Y79.775 E26.67651
G1 X111.435 Y83.495 E26.82668
G1 X112.512 Y84.825 E26.87749
G1 X113.721 Y86.714 E26.94409
G1 X115.156 Y89.589 E27.03948
G1 X115.893 Y91.574 E27.10236
G1 X116.388 Y93.623 E27.16493
G1 X116.661 Y96.237 E27.24297
G1 X116.670 Y102.793 E27.43762
G1 X116.585 Y104.471 E27.48751
G1 X116.340 Y106.143 E27.53770
G1 X115.810 Y108.205 E27.60089
G1 X115.037 Y110.188 E27.66409
G1 X112.372 Y115.326 E27.83595
G1 X111.362 Y116.971 E27.89327
G1 X109.818 Y118.902 E27.96667
G1 X107.499 Y121.171 E28.06299
G1 X105.975 Y122.439 E28.12186
G1 X104.321 Y123.530 E28.18072
G1 X102.488 Y124.461 E28.24174
G1 X100.571 Y125.172 E28.30246
G1 X97.044 Y126.012 E28.41008
G1 X95.324 Y126.291 E28.46182
G1 X92.082 Y126.459 E28.55823
G1 X87.625 Y126.449 E28.69057
M73 P1 R45
M73 Q1 S45
G1 X84.245 Y126.301 E28.79100
G1 X82.229 Y126.026 E28.85141
G1 X80.129 Y125.482 E28.91584
G1 X78.100 Y124.682 E28.98058
G1 X76.184 Y123.642 E29.04532
G1 X74.417 Y122.382 E29.10975
G1 X71.939 Y120.110 E29.20957
G1 X68.773 Y116.601 E29.34990
G1 X67.595 Y115.099 E29.40659
G1 X66.402 Y113.221 E29.47263
G1 X65.554 Y111.651 E29.52561
G1 X64.866 Y110.005 E29.57860
G1 X64.163 Y107.817 E29.64683
G1 X63.754 Y105.867 E29.70600
G1 X63.363 Y102.209 E29.81523
G1 X63.293 Y100.676 E29.86078
G1 X63.357 Y98.309 E29.93108
G1 X63.726 Y95.561 E30.01342
G1 X64.976 Y90.839 E30.15843
G1 X66.090 Y87.940 E30.25066
G1 X66.983 Y86.135 E30.31044
G1 X68.074 Y84.442 E30.37023
G1 X70.629 Y81.118 E30.49473
G1 X71.839 Y79.827 E30.54727
M204 S1000
G1 X72.230 Y79.933 F9000.000
M204 S500
G1 F1800.000
G1 X73.690 Y78.684 E30.60431
G1 X75.359 Y77.556 E30.66411
G1 X78.584 Y75.772 E30.77354
G1 X80.317 Y75.017 E30.82967
G1 X82.121 Y74.454 E30.88579
G1 X83.812 Y74.112 E30.93701
G1 X85.518 Y73.939 E30.98793
G1 X92.461 Y73.915 E31.19406
G1 X94.994 Y74.101 E31.26948
G1 X97.473 Y74.651 E31.34489
G1 X100.732 Y75.797 E31.44747
G1 X104.281 Y77.457 E31.56378
G1 X106.109 Y78.643 E31.62848
G1 X107.776 Y80.047 E31.69318
G1 X111.176 Y83.741 E31.84226
G1 X112.241 Y85.059 E31.89257
G1 X113.419 Y86.905 E31.95757
G1 X114.837 Y89.750 E32.05197
G1 X115.557 Y91.697 E32.11361
G1 X116.041 Y93.716 E32.17525
G1 X116.305 Y96.263 E32.25127
G1 X116.312 Y102.813 E32.44574
G1 X116.226 Y104.463 E32.49482
G1 X115.983 Y106.109 E32.54420
G1 X115.459 Y108.128 E32.60615
G1 X114.703 Y110.061 E32.66779
G1 X112.057 Y115.158 E32.83828
G1 X111.056 Y116.785 E32.89502
G1 X109.538 Y118.679 E32.96707
G1 X107.246 Y120.918 E33.06220
G1 X105.745 Y122.165 E33.12016
G1 X104.113 Y123.238 E33.17813
G1 X102.326 Y124.142 E33.23762
G1 X100.436 Y124.840 E33.29742
G1 X96.958 Y125.665 E33.40354
G1 X95.255 Y125.940 E33.45476
G1 X92.072 Y126.102 E33.54942
G1 X87.620 Y126.092 E33.68161
G1 X84.267 Y125.945 E33.78125
G1 X82.261 Y125.668 E33.84136
G1 X80.203 Y125.130 E33.90453
G1 X78.216 Y124.342 E33.96800
G1 X76.348 Y123.323 E34.03117
G1 X74.610 Y122.078 E34.09465
G1 X72.181 Y119.847 E34.19258
G1 X69.034 Y116.357 E34.33213
G1 X67.875 Y114.876 E34.38794
G1 X66.691 Y113.008 E34.45361
G1 X65.859 Y111.462 E34.50575
G1 X65.189 Y109.850 E34.55758
G1 X64.502 Y107.704 E34.62448
G1 X64.103 Y105.783 E34.68274
G1 X63.717 Y102.164 E34.79078
G1 X63.650 Y100.658 E34.83556
G1 X63.714 Y98.324 E34.90487
G1 X64.083 Y95.597 E34.98660
G1 X65.318 Y90.943 E35.12956
G1 X66.421 Y88.074 E35.22082
G1 X67.302 Y86.297 E35.27970
G1 X68.366 Y84.648 E35.33797
G1 X70.908 Y81.341 E35.46181
G1 X72.194 Y79.971 E35.51760
M204 S1000
G1 X72.454 Y80.215 F9000.000
M204 S500
G1 F1800.000
G1 X73.920 Y78.958 E35.57494
G1 X75.556 Y77.854 E35.63352
G1 X78.751 Y76.088 E35.74192
G1 X80.447 Y75.350 E35.79686
G1 X82.224 Y74.796 E35.85211
G1 X83.878 Y74.463 E35.90219
G1 X85.556 Y74.294 E35.95228
G1 X92.460 Y74.272 E36.15729
G1 X94.947 Y74.455 E36.23132
G1 X97.381 Y74.997 E36.30536
G1 X100.606 Y76.131 E36.40685
G1 X104.120 Y77.777 E36.52206
G1 X105.911 Y78.941 E36.58549
G1 X107.543 Y80.319 E36.64892
G1 X110.911 Y83.979 E36.79659
G1 X111.963 Y85.285 E36.84638
G1 X113.116 Y87.095 E36.91011
G1 X114.517 Y89.912 E37.00351
G1 X115.221 Y91.820 E37.06391
G1 X115.695 Y93.809 E37.12461
G1 X115.948 Y96.290 E37.19865
G1 X115.955 Y102.822 E37.39261
G1 X115.868 Y104.456 E37.44118
G1 X115.626 Y106.074 E37.48975
G1 X115.112 Y108.042 E37.55015
G1 X114.368 Y109.935 E37.61055
G1 X111.742 Y114.990 E37.77966
G1 X110.756 Y116.591 E37.83551
G1 X109.265 Y118.448 E37.90622
G1 X106.986 Y120.672 E38.00076
G1 X105.514 Y121.892 E38.05752
G1 X103.907 Y122.945 E38.11459
G1 X102.144 Y123.832 E38.17317
G1 X100.301 Y124.508 E38.23144
G1 X96.863 Y125.320 E38.33635
G1 X95.187 Y125.588 E38.38675
G1 X92.051 Y125.746 E38.47996
G1 X87.625 Y125.735 E38.61138
G1 X84.288 Y125.588 E38.71055
G1 X82.304 Y125.313 E38.77004
G1 X80.277 Y124.779 E38.83226
G1 X78.331 Y124.002 E38.89448
G1 X76.494 Y122.993 E38.95670
G1 X74.802 Y121.775 E39.01861
G1 X72.423 Y119.584 E39.11463
G1 X69.288 Y116.105 E39.25370
G1 X68.155 Y114.654 E39.30834
G1 X66.980 Y112.796 E39.37361
G1 X66.169 Y111.282 E39.42461
G1 X65.516 Y109.704 E39.47531
G1 X64.841 Y107.591 E39.54117
G1 X64.451 Y105.699 E39.59854
G1 X64.073 Y102.131 E39.70507
G1 X64.007 Y100.650 E39.74910
G1 X64.070 Y98.350 E39.81740
G1 X64.440 Y95.633 E39.89882
G1 X65.657 Y91.056 E40.03943
G1 X66.748 Y88.217 E40.12973
G1 X67.616 Y86.468 E40.18770
G1 X68.658 Y84.853 E40.24477
G1 X71.180 Y81.572 E40.36764
G1 X72.418 Y80.253 E40.42135
M204 S1000
G1 X72.678 Y80.498 F9000.000
M204 S500
G1 F1800.000
G1 X74.150 Y79.232 E40.47900
G1 X75.753 Y78.153 E40.53636
G1 X78.917 Y76.404 E40.64371
G1 X80.597 Y75.675 E40.69808
G1 X82.336 Y75.136 E40.75215
G1 X83.954 Y74.813 E40.80111
G1 X85.595 Y74.650 E40.85007
G1 X92.460 Y74.629 E41.05393
G1 X94.901 Y74.809 E41.12659
G1 X97.299 Y75.345 E41.19955
G1 X100.479 Y76.465 E41.29964
G1 X103.959 Y78.096 E41.41375
G1 X105.721 Y79.245 E41.47622
G1 X107.319 Y80.598 E41.53838
G1 X110.652 Y84.225 E41.68464
G1 X111.691 Y85.518 E41.73390
G1 X112.813 Y87.286 E41.79607
G1 X114.198 Y90.073 E41.88846
G1 X114.888 Y91.953 E41.94792
G1 X115.349 Y93.902 E42.00739
G1 X115.592 Y96.317 E42.07945
G1 X115.598 Y102.841 E42.27318
G1 X115.510 Y104.448 E42.32094
G1 X115.269 Y106.038 E42.36871
G1 X114.764 Y107.955 E42.42757
G1 X114.033 Y109.809 E42.48674
G1 X111.428 Y114.821 E42.65446
G1 X110.450 Y116.406 E42.70973
G1 X108.992 Y118.218 E42.77879
G1 X106.727 Y120.426 E42.87273
G1 X105.267 Y121.630 E42.92889
G1 X103.691 Y122.657 E42.98476
G1 X101.972 Y123.517 E43.04182
G1 X100.166 Y124.175 E43.09889
G1 X96.767 Y124.975 E43.20257
G1 X95.119 Y125.236 E43.25214
G1 X92.031 Y125.389 E43.34392
G1 X87.620 Y125.377 E43.47488
G1 X84.310 Y125.232 E43.57327
G1 X82.336 Y124.955 E43.63244
G1 X80.352 Y124.428 E43.69340
G1 X78.456 Y123.666 E43.75407
G1 X76.658 Y122.674 E43.81503
G1 X74.995 Y121.471 E43.87600
G1 X72.666 Y119.321 E43.97009
G1 X69.542 Y115.853 E44.10869
G1 X68.430 Y114.424 E44.16245
G1 X67.264 Y112.576 E44.22732
G1 X66.479 Y111.103 E44.27688
G1 X65.844 Y109.559 E44.32645
G1 X65.184 Y107.489 E44.39097
G1 X64.800 Y105.616 E44.44774
G1 X64.428 Y102.087 E44.55309
G1 X64.364 Y100.627 E44.59648
G1 X64.427 Y98.365 E44.66366
G1 X64.797 Y95.670 E44.74444
G1 X65.996 Y91.169 E44.88272
G1 X67.079 Y88.351 E44.97236
G1 X67.929 Y86.639 E45.02913
G1 X68.950 Y85.058 E45.08500
G1 X71.459 Y81.796 E45.20720
G1 X72.643 Y80.536 E45.25852
M204 S1000
G1 X72.903 Y80.780 F9000.000
M204 S500
G1 F1800.000
G1 X72.986 Y80.692 E45.26212
G1 X74.381 Y79.505 E45.31650
G1 X75.942 Y78.456 E45.37236
G1 X79.084 Y76.720 E45.47895
G1 X80.728 Y76.007 E45.53214
G1 X82.439 Y75.478 E45.58533
G1 X84.020 Y75.164 E45.63317
G1 X85.624 Y75.006 E45.68102
G1 X92.460 Y74.986 E45.88401
G1 X94.865 Y75.165 E45.95560
G1 X97.207 Y75.690 E46.02688
G1 X100.342 Y76.795 E46.12558
G1 X103.798 Y78.415 E46.23888
G1 X105.515 Y79.536 E46.29978
G1 X107.079 Y80.863 E46.36069
G1 X110.392 Y84.471 E46.50612
G1 X111.414 Y85.743 E46.55456
G1 X112.506 Y87.468 E46.61517
G1 X113.875 Y90.224 E46.70654
G1 X114.549 Y92.066 E46.76478
G1 X115.001 Y93.985 E46.82331
G1 X115.235 Y96.344 E46.89371
G1 X115.241 Y102.850 E47.08688
G1 X115.153 Y104.429 E47.13384
G1 X114.912 Y106.002 E47.18109
G1 X114.414 Y107.879 E47.23873
G1 X113.701 Y109.674 E47.29608
G1 X111.108 Y114.662 E47.46300
G1 X110.145 Y116.219 E47.51738
G1 X108.712 Y117.995 E47.58511
G1 X106.467 Y120.179 E47.67812
G1 X105.037 Y121.356 E47.73309
G1 X103.484 Y122.364 E47.78806
G1 X101.810 Y123.199 E47.84363
G1 X100.041 Y123.840 E47.89949
G1 X96.682 Y124.628 E48.00192
G1 X95.051 Y124.885 E48.05096
G1 X92.021 Y125.032 E48.14101
G1 X87.616 Y125.020 E48.27181
G1 X84.331 Y124.875 E48.36943
G1 X82.379 Y124.599 E48.42796
G1 X80.436 Y124.079 E48.48768
G1 X78.572 Y123.326 E48.54740
G1 X76.813 Y122.350 E48.60712
G1 X75.194 Y121.173 E48.66654
